!!!!SEGMENT: pl-kk--kk-i-277--002-001_anonim--rorate-caeli-rorate-caeli.krn
!!!cenid: 16xx:1083
!!!COM: Anonim
!!!COM-rism: pe30004985
!!!CDT:
!!!CNT:
!!!OTL: Rorate caeli – Rorate caeli
!!!PDT:
!!!AGN: Sacred
!!!SMS-siglum: PL-Kk
!!!SMS-shelfmark: Kk.I.277
!!!NIFC-rismID: 1001147188
!!!URL-scan: http://repozytorium.nifc.pl/skany/pl-kk-nut--i-277
!!!ONB-nifc: UWAGA: Introitus Secundi officii od str. 5. części: 1. Rorate caeli (Rorate caeli + Benedixisti + Gloria patri), 2. Kyrie, 3. Et in terra, 4. Tollite portas, 5. Alleluia, 6. Mittit ad virginem, 7. Ave Maria, 8. Sanctus, 9. Agnus Dei, 10. Ecce virgo
!!!SMS-variant:
!!!SMS-altvar:
**kern	**text
*I"[Tenore]	*
*I'[T]	*
*clefC4	*
*k[]	*
*M2/1	*
*lig	*
*met(C)	*
=1-	=1-
!LO:TX:a:t=Introitus Secundi officij.	!
1C	Ro-
1D	.
*Xlig	*
=2-	=2-
1D	-ra-
*lig	*
1A	.
=3-	=3-
1c	.
*Xlig	*
!LO:TX:a:t=P:problem:rozdzielacz słów:global	!
1A,<	-te
=4-	=4-
*lig	*
1A	Cae-
1B	.
*Xlig	*
=5-	=5-
*lig	*
1c	.
1A	.
*Xlig	*
=6-	=6-
*lig	*
1A	-li
1G,<	.
*Xlig	*
=7-	=7-
1A	de-
1c	.
=8-	=8-
*lig	*
1c	-ſu-
1B	.
*Xlig	*
=9-	=9-
*lig	*
1c	.
1d	.
*Xlig	*
=10-	=10-
1c	.
1d	.
=11-	=11-
*lig	*
1d	-per
1c	.
*Xlig	*
!LO:LB:g=original	!
=12-	=12-
1G	et
*lig	*
1B	Nu-
=13-	=13-
1c	.
*Xlig	*
1A	.
=14-	=14-
1A,<	-bes
1B	plu-
=15-	=15-
*lig	*
1c	.
1A	.
*Xlig	*
=16-	=16-
1A,<	-ant
*lig	*
1G	iu-
=17-	=17-
1F	.
*Xlig	*
*lig	*
1A	.
=18-	=18-
1G	.
*Xlig	*
1F	.
=19-	=19-
*lig	*
1G	.
1F	.
*Xlig	*
=20-	=20-
1F,<	-ſtum
1F	a-
=21-	=21-
1G	-pe-
1A	-ri-
=22-	=22-
*lig	*
1A	-a-
1c	.
*Xlig	*
=23-	=23-
1G	-tur
1F	ter-
=24-	=24-
*lig	*
1G	.
1F	.
*Xlig	*
=25-	=25-
1D	.
!LO:LB:g=original	!
1D,<	-ra
=26-	=26-
1F	et
1F	ger-
=27-	=27-
*lig	*
1G	.
1F	.
*Xlig	*
=28-	=28-
*lig	*
1G	.
1F	.
*Xlig	*
=29-	=29-
1D	-mi-
*lig	*
1D	-net
=30-	=30-
1F	.
*Xlig	*
1C,<	.
=31-	=31-
*lig	*
1F	ſal-
1D	.
*Xlig	*
=32-	=32-
*lig	*
1D	-va-
1E	.
*Xlig	*
=33-	=33-
*lig	*
1F	-to-
1D	.
*Xlig	*
=34-	=34-
0Dl;;	rem
=35||	=35||
1F	Be-
1G	-ne-
=36-	=36-
1A	-di-
2A/	-xi-
2A/	-ſti
=37-	=37-
2A/	Do-
2A/	-mi-
2A/	-ne
2A/	ter-
!LO:LB:g=original	!
=38-	=38-
*lig	*
1A	.
1c	.
*Xlig	*
=39-	=39-
0A	-ram
=40-	=40-
*lig	*
1A	tu-
1G	.
*Xlig	*
=41-	=41-
*lig	*
1G	-am
1A	.
*Xlig	*
=42-	=42-
*lig	*
1G	a-
1F	.
*Xlig	*
=43-	=43-
*lig	*
1G	-uer-
1A	.
*Xlig	*
=44-	=44-
1A	-ti-
1A,<	-ſti
=45-	=45-
0A	ca-
=46-	=46-
0A	-pti-
=47-	=47-
0A	-ui-
=48-	=48-
0.A	-ta-
=49-	=49-
.	.
1B	-tem
=50-	=50-
*lig	*
1c	Ja
1A	.
*Xlig	*
=51-	=51-
*lig	*
1G	Ja-
1F	.
*Xlig	*
=52-	=52-
*lig	*
1F	-cob
1E	.
*Xlig	*
=53-	=53-
0Dl;;	.
=54||	=54||
*met(c)	*
1F	Glo-
1G	-ri-
!LO:LB:g=original	!
=55-	=55-
1A	-ri-
1A,<	-a
=56-	=56-
1A	Pa-
1A,<	-tri
=57-	=57-
1A,<	et
1A	Fi-
=58-	=58-
1A	-li-
1A,<	-o
=59-	=59-
1A	et
1A	ſpi-
=60-	=60-
*lig	*
1A	-ri-
1c	.
*Xlig	*
=61-	=61-
1A	-tu-
1A	-i
=62-	=62-
*lig	*
1A	ſan-
1G	.
*Xlig	*
=63-	=63-
*lig	*
1G	-cto
!LO:TX:t=P:problem:kreska pseudotaktowa	!
1A	.
*Xlig	*
=64-	=64-
*lig	*
1G	ſi-
1F	.
*Xlig	*
=65-	=65-
*lig	*
1G	-cut
1A	.
*Xlig	*
=66-	=66-
1A	e-
1A,<	-rat
=67-	=67-
1A,<	in
1A	prin-
=68-	=68-
1A	-ci-
1A	-pi-
!LO:LB:g=original	!
=69-	=69-
1A,<	-o
1A	et
=70-	=70-
*lig	*
1A	nunc
1c	.
*Xlig	*
=71-	=71-
1A	et
*lig	*
1A	ſem-
=72-	=72-
1G	.
*Xlig	*
*lig	*
1G	-per
=73-	=73-
1A	.
*Xlig	*
*lig	*
1G	et
=74-	=74-
1F	.
*Xlig	*
*lig	*
1G	in
=75-	=75-
1A	.
*Xlig	*
1A	ſae-
=76-	=76-
1A	-cu-
1A,<	-la
=77-	=77-
1A	ſae-
1A	-cu-
=78-	=78-
*lig	*
1B	-lo-
1c	.
*Xlig	*
=79-	=79-
1A	.
1G	.
=80-	=80-
1F,<	-rum
*lig	*
1F	A-
=81-	=81-
1E	.
*Xlig	*
1Dl;;	men
==	==
*-	*-
!!!RDF**kern: < = below
!!!RDF**kern: l = terminal long
!!!ENC: Marta Lawrence
!!!END: 2021-03-28
!!!ENC: Tomasz Grochalski
!!!END: 2021-03-14
